build/img/vacancies-title-decor.svg

<svg width="252" height="180" viewBox="0 0 252 180" fill="none" xmlns="http://www.w3.org/2000/svg">
<g clip-path="url(#clip0)">
<path d="M234.076 68.2182L189.984 61.0568L200.431 33.0743C202.741 26.8812 199.722 24.0657 193.712 26.8124L141.498 50.6834L119.701 20.6137C116.57 16.2979 112.641 16.9063 110.962 21.9668L99.2805 57.2269L42.292 50.2654C35.733 49.465 33.707 53.0616 37.7812 58.2663L56.2077 81.7715L16.3402 101.934C8.8419 105.724 9.49293 109.928 17.7872 111.279L61.8793 118.44L51.4318 146.423C49.1225 152.616 52.1414 155.431 58.1512 152.685L110.365 128.814L132.164 158.89C135.294 163.205 139.224 162.597 140.902 157.536L152.584 122.276L209.572 129.238C216.131 130.038 218.157 126.442 214.083 121.237L195.662 97.7246L235.523 77.5634C243.021 73.7735 242.37 69.5691 234.076 68.2182Z" fill="#00C1FF"/>
<path d="M79.8939 108.904L82.0335 93.8111L88.6377 107.55L95.4445 106.496L99.0913 84.8514L93.4743 85.7212L91.2649 101.278L84.6198 87.0923L77.979 88.1206L75.9547 103.593L69.1245 89.4916L63.0094 90.4385L73.2807 109.928L79.8939 108.904ZM111.889 82.5298C102.259 84.0209 100.398 90.1174 101.092 94.6L101.221 95.4301C101.906 99.8574 105.55 105.272 115.179 103.781L116.397 103.592C126.026 102.101 127.861 95.8384 127.176 91.4112L127.047 90.581C126.349 86.0708 122.735 80.8502 113.106 82.3413L111.889 82.5298ZM121.22 92.1067C121.606 94.597 120.838 98.0592 115.055 98.9547C109.383 99.833 107.494 96.7822 107.108 94.2918L107.048 93.9045C106.654 91.3588 107.47 88.0307 113.226 87.1395C119.036 86.2397 120.766 89.1737 121.16 91.7193L121.22 92.1067ZM134.857 83.96L142.798 82.7303C145.122 82.3704 145.905 83.2127 146.089 84.4025L146.097 84.4578C146.282 85.6476 145.799 86.7423 143.475 87.1022L135.534 88.3319L134.857 83.96ZM148.343 88.1619C150.826 87.1823 152.327 85.1649 151.928 82.5916L151.886 82.3149C151.539 80.0736 150.147 76.9456 142.317 78.1581L128.454 80.3047L131.642 100.891L137.342 100.009L136.258 93.0082L143.673 91.8599C146.551 91.4143 147.708 92.4818 148.119 95.1382L148.381 96.8261C148.522 97.7392 148.693 98.1094 148.797 98.2349L154.691 97.3223L154.67 97.184C154.425 96.8819 154.222 96.4883 153.982 94.9387L153.652 92.8081C153.185 89.7921 151.236 88.3656 148.343 88.1619ZM163.258 95.9958L161.758 86.3112L173.164 94.4619L180.607 93.3093L167.563 83.9106L176.949 72.7955L169.699 73.9181L161.381 83.8762L160.07 75.4091L154.37 76.2918L157.558 96.8784L163.258 95.9958ZM178.249 72.5941L182.199 86.2061L184.828 85.7991L184.448 71.6344L178.249 72.5941ZM186.766 87.3405L180.817 88.2617L181.576 93.1594L187.525 92.2382L186.766 87.3405Z" fill="white"/>
</g>
<defs>
<clipPath id="clip0">
<rect width="232.309" height="145.664" fill="white" transform="translate(0 35.5483) rotate(-8.80208)"/>
</clipPath>
</defs>
</svg>

<svg width="252" height="180" fill="none" xmlns="http://www.w3.org/2000/svg"><g clip-path="url(#clip0)"><path d="M234.076 68.218l-44.092-7.161 10.447-27.983c2.31-6.193-.709-9.008-6.719-6.262l-52.214 23.871-21.797-30.07c-3.131-4.315-7.06-3.707-8.739 1.354l-11.681 35.26-56.989-6.962c-6.559-.8-8.585 2.797-4.51 8.001l18.426 23.506-39.868 20.162c-7.498 3.79-6.847 7.994 1.447 9.345l44.092 7.161-10.447 27.983c-2.31 6.193.71 9.008 6.72 6.262l52.213-23.871 21.799 30.076c3.13 4.315 7.06 3.707 8.738-1.354l11.682-35.26 56.988 6.962c6.559.8 8.585-2.796 4.511-8.001l-18.421-23.512 39.861-20.162c7.498-3.79 6.847-7.994-1.447-9.345z" fill="#00C1FF"/><path d="M79.894 108.904l2.14-15.093 6.604 13.739 6.806-1.054 3.647-21.645-5.617.87-2.21 15.557-6.644-14.186-6.641 1.029-2.024 15.472-6.83-14.101-6.116.947 10.272 19.489 6.613-1.024zm31.995-26.374c-9.63 1.49-11.491 7.587-10.797 12.07l.129.83c.685 4.427 4.329 9.842 13.958 8.351l1.218-.189c9.629-1.491 11.464-7.754 10.779-12.18l-.129-.831c-.698-4.51-4.312-9.73-13.941-8.24l-1.217.189zm9.331 9.577c.386 2.49-.382 5.952-6.165 6.848-5.672.878-7.561-2.173-7.947-4.663l-.06-.388c-.394-2.545.422-5.873 6.178-6.764 5.81-.9 7.54 2.034 7.934 4.58l.06.387zm13.637-8.147l7.941-1.23c2.324-.36 3.107.483 3.291 1.672l.008.056c.185 1.19-.298 2.284-2.622 2.644l-7.941 1.23-.677-4.372zm13.486 4.202c2.483-.98 3.984-2.997 3.585-5.57l-.042-.277c-.347-2.241-1.739-5.37-9.569-4.157l-13.863 2.147 3.188 20.586 5.7-.882-1.084-7 7.415-1.15c2.878-.445 4.035.623 4.446 3.28l.262 1.687c.141.913.312 1.283.416 1.409l5.894-.913-.021-.138c-.245-.302-.448-.696-.688-2.245l-.33-2.13c-.467-3.017-2.416-4.443-5.309-4.647zm14.915 7.834l-1.5-9.685 11.406 8.15 7.443-1.152-13.044-9.398 9.386-11.115-7.25 1.122-8.318 9.958-1.311-8.467-5.7.883 3.188 20.586 5.7-.882zm14.991-23.402l3.95 13.612 2.629-.407-.38-14.165-6.199.96zm8.517 14.747l-5.949.92.759 4.898 5.949-.92-.759-4.898z" fill="#fff"/></g><defs><clipPath id="clip0"><path fill="#fff" transform="rotate(-8.802 230.94 17.774)" d="M0 0h232.309v145.664H0z"/></clipPath></defs></svg>
